svg/u1f423.svg

<svg viewBox="0 0 128 128" xmlns="http://www.w3.org/2000/svg">
  <path d="M34.57,46.68c0,0-7.3,7.88-13.09,12.39C15.14,63.99,3.11,69.2,4.51,73.78 c1.04,3.36,10.35,3.59,13.59,2.75c3.24-0.84,17.18,8.73,17.18,8.73s65.32-1.83,66.03-2.53c0.7-0.7,10-6.76,12.53-6.62 c2.53,0.14,8.26-1.38,9.43-4.22c0.99-2.39-4.79-5.21-10.7-9.08c-9.66-6.32-12.67-11.61-12.67-11.61s5.73-18.4-6.66-31.16 C81.65,8.09,57.94,4.82,43.86,19.27C32.89,30.54,34.57,46.68,34.57,46.68z" fill="#FFB903"/>
  <polygon fill="#B0B1B3" points="28.52,69.2 28.94,76.95 23.31,77.51 "/>
  <polygon fill="#B0B1B3" points="99.89,80.18 100.31,72.16 105.24,77.09 "/>
  <path d="M65.82,122.56c27.17-0.16,45.73-23.11,46.6-41.39c0.28-5.91-3.24-5.07-3.24-5.07l-5.35-1.97 l-7.88,6.19c0,0-13.94-10-15.35-10.28c-1.41-0.28-16.05,9.43-16.05,9.43s-15.35-9.85-16.61-9.85c-1.27,0-13.51,9.15-13.51,9.15 l-9.15-6.34l-5.07,3.8l-3.66,1.27C16.55,77.51,17.54,122.84,65.82,122.56z" fill="#DEDEDE"/>
  <path d="M28.75,98.67c4.22,6.39,7.7,9.1,9.01,10.23c1.31,1.13,3.38,2.35,4.69,0.84 c1.31-1.5-0.19-3.1-2.06-4.97s-6.29-6.57-8.07-9.2s-3.66-7.98-4.04-9.1c-0.38-1.13-1.88-3.38-3.85-2.44 c-1.97,0.94-1.31,3.38-0.75,4.88C24.25,90.41,25.28,93.42,28.75,98.67z" fill="#FDFDFD"/>
  <ellipse cx="48.98" cy="112.37" fill="#FDFDFD" rx="2.58" ry="3.14" transform="matrix(0.2893 -0.9572 0.9572 0.2893 -72.7613 126.7501)"/>
  <path d="M31.1,66.01c2.14,1.57-0.66,3.94-1.69,5.07c-0.67,0.74-5.44,6.66-11.83,7.41 c-6.13,0.72-9.67-1.12-12.15-3.38c-2.06-1.88-0.8-2.93,0.7-1.62c0.9,0.79,4.97,2.56,10.23,1.71s8.82-4.41,10.32-6.01 C27.56,68.27,29.69,64.98,31.1,66.01z" fill="#FF8E01"/>
  <path d="M96.61,67.79c-1.17,1.37,0.28,3.28,2.72,5.07s8.23,6.28,16.89,4.86c6.85-1.13,7.98-6.78,6.76-6.26 c-1.22,0.52-3.85,3-7.04,3.28c-3.19,0.28-7.63-0.24-10.98-2.44c-2.72-1.78-3.66-2.72-5.26-3.94C99.17,67.95,97.73,66.48,96.61,67.79 z" fill="#FF8E01"/>
  <path d="M57.45,31.47c-0.26,2.88-1.83,5.77-4.76,5.26c-3.12-0.54-4.01-3.15-3.76-6.03 c0.26-2.88,2.48-4.61,4.69-4.41C55.83,26.48,57.7,28.59,57.45,31.47z" fill="#2E3030"/>
  <path d="M91.57,38.68c-0.56,2.84-2.37,5.32-5.28,4.73c-3.11-0.63-3.78-3.49-2.94-6.94 c0.69-2.81,3.18-3.8,5.35-3.38C90.88,33.52,92.12,35.84,91.57,38.68z" fill="#2E3030"/>
  <path d="M71.38,34.71c-0.64-0.36-11.12,8.31-11.12,8.31s5.14,12.04,5.63,12.11 c0.49,0.07,10.56-8.24,10.56-8.24S71.88,34.99,71.38,34.71z" fill="#FF8C00"/>
  <path d="M58.32,42.13c-0.61,1.31,0.47,2.25,2.58,2.96s3.57,0.94,3.57,0.94s0.99,3.75,2.63,4.18 c1.64,0.42,4.22-2.39,4.22-2.39s2.11,0.23,3,0.28c0.89,0.05,3.28,0.83,3.52-0.94c0.28-2.06-2.35-1.74-3.24-1.97 c-0.89-0.23-2.96-0.8-2.96-0.8s-0.56-3.8-2.02-4.22c-1.45-0.42-4.18,2.91-4.18,2.91s-2.53-0.8-3.28-1.03 C61.41,41.8,58.92,40.82,58.32,42.13z" fill="#FF5F02"/>
</svg>

<svg viewBox="0 0 128 128" xmlns="http://www.w3.org/2000/svg">
  <defs/>
  <path d="M34.57,46.68 C34.57,46.68 27.27,54.56 21.48,59.07 C15.14,63.99 3.11,69.2 4.51,73.78 C5.55,77.14 14.86,77.37 18.1,76.53 C21.34,75.69 35.28,85.26 35.28,85.26 C35.28,85.26 100.6,83.43 101.31,82.73 C102.01,82.03 111.31,75.97 113.84,76.11 C116.37,76.25 122.1,74.73 123.27,71.89 C124.26,69.5 118.48,66.68 112.57,62.81 C102.91,56.49 99.9,51.2 99.9,51.2 C99.9,51.2 105.63,32.8 93.24,20.04 C81.65,8.09 57.94,4.82 43.86,19.27 C32.89,30.54 34.57,46.68 34.57,46.68 Z" fill="#FFB903"/>
  <path d="M28.52,69.2 L28.94,76.95 L23.31,77.51 Z" fill="#B0B1B3"/>
  <path d="M99.89,80.18 L100.31,72.16 L105.24,77.09 Z" fill="#B0B1B3"/>
  <path d="M65.82,122.56 C92.99,122.4 111.55,99.45 112.42,81.17 C112.7,75.26 109.18,76.1 109.18,76.1 L103.83,74.13 L95.95,80.32 C95.95,80.32 82.01,70.32 80.6,70.04 C79.19,69.76 64.55,79.47 64.55,79.47 C64.55,79.47 49.2,69.62 47.94,69.62 C46.67,69.62 34.43,78.77 34.43,78.77 L25.28,72.43 L20.21,76.23 L16.55,77.5 C16.55,77.51 17.54,122.84 65.82,122.56 Z" fill="#DEDEDE"/>
  <path d="M28.75,98.67 C32.97,105.06 36.45,107.77 37.76,108.9 C39.07,110.03 41.14,111.25 42.45,109.74 C43.76,108.24 42.26,106.64 40.39,104.77 C38.52,102.9 34.1,98.2 32.32,95.57 C30.54,92.94 28.66,87.59 28.28,86.47 C27.9,85.34 26.4,83.09 24.43,84.03 C22.46,84.97 23.12,87.41 23.68,88.91 C24.25,90.41 25.28,93.42 28.75,98.67 Z" fill="#FDFDFD"/>
  <path d="M49.716,109.906 C51.376,110.407 52.387,111.92 51.975,113.283 C51.563,114.647 49.883,115.346 48.223,114.845 C46.563,114.343 45.551,112.831 45.964,111.467 C46.376,110.103 48.056,109.404 49.716,109.906 Z" fill="#FDFDFD"/>
  <path d="M31.1,66.01 C33.24,67.58 30.44,69.95 29.41,71.08 C28.74,71.82 23.97,77.74 17.58,78.49 C11.45,79.21 7.91,77.37 5.43,75.11 C3.37,73.23 4.63,72.18 6.13,73.49 C7.03,74.28 11.1,76.05 16.36,75.2 C21.62,74.35 25.18,70.79 26.68,69.19 C27.56,68.27 29.69,64.98 31.1,66.01 Z" fill="#FF8E01"/>
  <path d="M96.61,67.79 C95.44,69.16 96.89,71.07 99.33,72.86 C101.77,74.65 107.56,79.14 116.22,77.72 C123.07,76.59 124.2,70.94 122.98,71.46 C121.76,71.98 119.13,74.46 115.94,74.74 C112.75,75.02 108.31,74.5 104.96,72.3 C102.24,70.52 101.3,69.58 99.7,68.36 C99.17,67.95 97.73,66.48 96.61,67.79 Z" fill="#FF8E01"/>
  <path d="M57.45,31.47 C57.19,34.35 55.62,37.24 52.69,36.73 C49.57,36.19 48.68,33.58 48.93,30.7 C49.19,27.82 51.41,26.09 53.62,26.29 C55.83,26.48 57.7,28.59 57.45,31.47 Z" fill="#2E3030"/>
  <path d="M91.57,38.68 C91.01,41.52 89.2,44 86.29,43.41 C83.18,42.78 82.51,39.92 83.35,36.47 C84.04,33.66 86.53,32.67 88.7,33.09 C90.88,33.52 92.12,35.84 91.57,38.68 Z" fill="#2E3030"/>
  <path d="M71.38,34.71 C70.74,34.35 60.26,43.02 60.26,43.02 C60.26,43.02 65.4,55.06 65.89,55.13 C66.38,55.2 76.45,46.89 76.45,46.89 C76.45,46.89 71.88,34.99 71.38,34.71 Z" fill="#FF8C00"/>
  <path d="M58.32,42.13 C57.71,43.44 58.79,44.38 60.9,45.09 C63.01,45.8 64.47,46.03 64.47,46.03 C64.47,46.03 65.46,49.78 67.1,50.21 C68.74,50.63 71.32,47.82 71.32,47.82 C71.32,47.82 73.43,48.05 74.32,48.1 C75.21,48.15 77.6,48.93 77.84,47.16 C78.12,45.1 75.49,45.42 74.6,45.19 C73.71,44.96 71.64,44.39 71.64,44.39 C71.64,44.39 71.08,40.59 69.62,40.17 C68.17,39.75 65.44,43.08 65.44,43.08 C65.44,43.08 62.91,42.28 62.16,42.05 C61.41,41.8 58.92,40.82 58.32,42.13 Z" fill="#FF5F02"/>
</svg>
